X: 38
T: SCARBOROUGH WHIM
B: "Old English Country Dances", Frank Kidson ed., William Reeves pub., London 1890
Z: 2010-9-26 John Chambers <jc:trillian.mit.edu>
M: 6/8
L: 1/8
K: G
|: d3  BGB | c3  ABc | BGB dBd | gdc BAG |
   cec B3  | AFA c3  | BGB AFD | G3 G,3 :|
|: b3  dgb | a2A dfa | gfg eag | fed =f3 |
   ece a3  | dBd gdB | BGB AFD | G3 G,3 :|


%%sep 1 1 500

%%sep 1 1 500

